package/converter/svg/duotone/sun-haze.svg

<svg xmlns="http://www.w3.org/2000/svg" viewBox="0 0 640 512"><!-- Font Awesome Pro 6.0.0-alpha2 by @fontawesome - https://fontawesome.com License - https://fontawesome.com/license (Commercial License) --><defs><style>.fa-secondary{opacity:.4}</style></defs><path d="M563.435 141.271L454.429 121.572L434.728 12.564C432.754 1.633 420.135 -3.592 411.008 2.74L320 65.891L228.99 2.738C219.865 -3.594 207.246 1.631 205.269 12.562L185.57 121.572L76.562 141.27C65.633 143.246 60.404 155.865 66.736 164.988L129.888 256H192C192 185.307 249.306 128.002 320 128.002S448 185.307 448 256H510.109L573.262 164.99C579.594 155.865 574.365 143.248 563.435 141.271ZM320 160.002C266.98 160.002 224 202.98 224 256H416C416 202.98 373.019 160.002 320 160.002Z" class="fa-secondary"/><path d="M88 336.01H408C421.199 336.01 432 325.211 432 312.012S421.199 288.014 408 288.014H88C74.801 288.014 64 298.812 64 312.012S74.801 336.01 88 336.01ZM504 336.01H616C629.199 336.01 640 325.211 640 312.012S629.199 288.014 616 288.014H504C490.801 288.014 480 298.812 480 312.012S490.801 336.01 504 336.01ZM200 464.002H88C74.801 464.002 64 474.803 64 488V488.002C64 501.199 74.801 512 88 512H200C213.199 512 224 501.199 224 488.002V488C224 474.803 213.199 464.002 200 464.002ZM616 464.002H296C282.801 464.002 272 474.803 272 488V488.002C272 501.199 282.801 512 296 512H616C629.199 512 640 501.199 640 488.002V488C640 474.803 629.199 464.002 616 464.002ZM576 400.006C576 386.807 565.199 376.008 552 376.008H24C10.801 376.008 0 386.807 0 400.006S10.801 424.004 24 424.004H552C565.199 424.004 576 413.205 576 400.006Z" class="fa-primary"/></svg>

<svg xmlns="http://www.w3.org/2000/svg" viewBox="0 0 640 512"><!--! Font Awesome Pro 6.6.0 by @fontawesome - https://fontawesome.com License - https://fontawesome.com/license (Commercial License) Copyright 2024 Fonticons, Inc. --><defs><style>.fa-secondary{opacity:.4}</style></defs><path class="fa-secondary" d="M64 156.6c0 3.2 1 6.4 2.8 9.1L129.1 256l62.9 0c0-70.7 57.3-128 128-128s128 57.3 128 128l62.9 0 62.3-90.3c1.9-2.7 2.8-5.9 2.8-9.1c0-2.1-.4-4.2-1.2-6.1c-2.1-5-6.6-8.6-11.9-9.6L455 121 435.1 13.1c-1-5.3-4.6-9.8-9.6-11.9c-2-.8-4-1.2-6.1-1.2c-3.2 0-6.4 1-9.1 2.8L320 65.1 229.7 2.8c-4.5-3.1-10.2-3.7-15.2-1.6s-8.6 6.6-9.6 11.9L185 121 77.1 140.9c-5.3 1-9.8 4.6-11.9 9.6c-.8 2-1.2 4.1-1.2 6.1zM224 256l192 0c0-53-43-96-96-96s-96 43-96 96z"/><path class="fa-primary" d="M640 312c0-13.3-10.7-24-24-24l-112 0c-13.3 0-24 10.7-24 24s10.7 24 24 24l112 0c13.3 0 24-10.7 24-24zm-208 0c0-13.3-10.7-24-24-24L88 288c-13.3 0-24 10.7-24 24s10.7 24 24 24l320 0c13.3 0 24-10.7 24-24zm144 88c0-13.3-10.7-24-24-24L24 376c-13.3 0-24 10.7-24 24s10.7 24 24 24l528 0c13.3 0 24-10.7 24-24zM88 464c-13.3 0-24 10.7-24 24s10.7 24 24 24l112 0c13.3 0 24-10.7 24-24s-10.7-24-24-24L88 464zm208 0c-13.3 0-24 10.7-24 24s10.7 24 24 24l320 0c13.3 0 24-10.7 24-24s-10.7-24-24-24l-320 0z"/></svg>
